X: 20393
T: MACGREGOR'S GATHERING
T: MARCH IN ROB ROY
Q: "Moderate."
%R: march, reel
B: W. Hamilton "Universal Tune-Book" Vol. 2 Glasgow 1846 p.39 #3
S: http://s3-eu-west-1.amazonaws.com/itma.dl.printmaterial/book_pdfs/hamiltonvol2web.pdf
Z: 2016 John Chambers <jc:trillian.mit.edu>
M: 2/4
L: 1/16
K: D
%%slurgraces yes
%%graceslurs yes
% - - - - - - - - - - - - - - - - - - - - - - - - -
|:\
d2ef edcB | A2A2 A2Bc | d2f2d2f2 | g2e2 e4 |\
d2ef edcB | A2a2 agfe | def2 efg2 | f2d2 d4 :|
|:\
f2ef gfed | B2B2 B2Ac | d2f2d2f2 | {a}g2e2 e4 |\
fegf edcB | A2ab agfe | def2 efg2 | f2d2 d4 :|
% - - - - - - - - - - - - - - - - - - - - - - - - -

%%sep 1 1 500
%%sep 1 1 500

